X: 410
P: Violin tuning: [eADA,] scordatura
M: C
L: 1/8
K: D
V: 1
|: A |\
|: f |\
x2 x2 e2ef & d/d/d dB B2Bf |\
d/d/d d>B Te>def | A<A TB>A d2d :|
|: (f/g/ |\
a)>fd>f e2-ef/g/ | a>fd>e d>efd |\
g>af>b Te>de>f | A<A TB>A d2d :|
|: f |\
g>ef>d e>Bd>A, | G,>G, TG,>G, D2D & x2 x2 C2C :|
V: 2 clef=bass middle=d
z |\
d2d2 e2E2 | A2A2 D2D2 | d2d2 e2E2 | A2A2 D2D :|\
|: z |
d2d2 d2e2 | d2d2 d2d2 |\
d2d2 d2e2 | A2A2 D2D :|\
|: z |\
d2d2 e2E2 |
d2d2 e2e2 | a2A2 D2D :|\
|: z |\
d2d2 e2e2 | d2d2 d2d2 |\
g2f2 e2E2 | A2A2 D2D :|
|: z |\
d2d2 A2A2 | d2d2 d2d2 |\
d2d2 A2A2 | d2d2 d2d2 |\
g2f2 e2d2 | A2A2 D2D :|

